X: 26627
T: Mickey Joe Mikes
R: jig
M: 6/8
K: Edorian
|:EGA B2A|B2A GEE|DA,A, DFA|dAB FED|
EGA B2A|B2A GEE|DA,A, DFA|BAF E3:|
EB,B, EFG|EB,B, GEC|DFA B2A|dAB FED|
EB,B, EFG|EB,B, GEC|DFA dAB|FED E3|
EB,B, EFG|EB,B, GEC|DFA B2A|dAB FED|
EGB Bdg|eBF GEC|DFA dAB|FED E3||

